icons/ticket-arrow-down-outline.svg

<svg xmlns="http://www.w3.org/2000/svg" width="24" height="24" viewBox="0 0 24 24">
  <path d="M20,4 C21.6568542,4 23,5.34314575 23,7 L23,7 L23,10 C23,10.5522847 22.5522847,11 22,11 L22,11 L21,11 C20.4756765,11 20.041054,11.4054732 20.0048111,11.8874652 L20.0048111,11.8874652 L20,12 C20,12.5243235 20.4054732,12.958946 20.8874652,12.9951889 L20.8874652,12.9951889 L21,13 L22,13 C22.5522847,13 23,13.4477153 23,14 L23,14 L23,17 C23,18.6568542 21.6568542,20 20,20 L20,20 L4,20 C2.34314575,20 1,18.6568542 1,17 L1,17 L1,14 C1,13.4477153 1.44771525,13 2,13 L2,13 L3,13 C3.52432346,13 3.95894602,12.5945268 3.99518895,12.1125348 L3.99518895,12.1125348 L4,12 C4,11.4756765 3.59452679,11.041054 3.11253483,11.0048111 L3.11253483,11.0048111 L3,11 L2,11 C1.44771525,11 1,10.5522847 1,10 L1,10 L1,7 C1,5.34314575 2.34314575,4 4,4 L4,4 Z M20,6 L4,6 C3.44771525,6 3,6.44771525 3,7 L3,7 L3,9 L3.22283965,9.00819622 C4.78446558,9.12340873 6,10.4263275 5.99932532,12.0367275 L5.99932532,12.0367275 L5.99180378,12.2228396 C5.87659127,13.7844656 4.57367247,15 3,15 L3,15 L3,17 C3,17.5128358 3.38604019,17.9355072 3.88337887,17.9932723 L3.88337887,17.9932723 L4,18 L20,18 C20.5522847,18 21,17.5522847 21,17 L21,17 L21,14.999 L20.7771604,14.9918038 C19.2155344,14.8765913 18,13.5736725 18.0006747,11.9632725 L18.0006747,11.9632725 L18.0081962,11.7771604 C18.1234087,10.2155344 19.4263275,9 21,9 L21,9 L21,7 C21,6.44771525 20.5522847,6 20,6 L20,6 Z M12,8 C12.5522847,8 13,8.44771525 13,9 L13,9 L13,12.585 L14.2928932,11.2928932 L14.3871006,11.2097046 C14.7793918,10.9046797 15.3466228,10.9324093 15.7071068,11.2928932 C16.0976311,11.6834175 16.0976311,12.3165825 15.7071068,12.7071068 L15.7071068,12.7071068 L12.7071068,15.7071068 L12.625449,15.7803112 C12.6225624,15.7826279 12.6196628,15.7849289 12.6128994,15.7902954 C12.6070733,15.7948255 12.6012086,15.7992821 12.5951593,15.8036865 C12.5711307,15.8215099 12.546275,15.8382813 12.5207088,15.8540045 C12.5086131,15.8613931 12.4963944,15.8685012 12.484277,15.8751242 C12.4642939,15.8862061 12.4438914,15.8966234 12.4232215,15.9063266 L12.4232215,15.9063266 L12.3710585,15.928896 C12.3515792,15.9366843 12.3317977,15.9438775 12.3121425,15.9502619 C12.2968513,15.9552713 12.2814633,15.9599023 12.2658396,15.964279 C12.2444365,15.9701664 12.2227461,15.9753602 12.2007258,15.9797599 C12.1833753,15.9832978 12.165949,15.9863719 12.1489612,15.9889807 L12.1489612,15.9889807 L12.08,15.996 L12.045,15.998 L12.019,15.999 L12,16 C11.9935938,16 11.9872016,15.9999398 11.980824,15.9998198 L11.980824,15.9998198 L11.9409686,15.9982669 C11.9308872,15.9976744 11.9208131,15.99693 11.909968,15.996002 L11.909968,15.996002 L11.8515331,15.9889822 C11.834051,15.9863719 11.8166247,15.9832978 11.7992059,15.9798348 C11.7772539,15.9753602 11.7555635,15.9701664 11.734007,15.9641549 C11.7185367,15.9599023 11.7031487,15.9552713 11.6882636,15.9504533 C11.6682023,15.9438775 11.6484208,15.9366843 11.628664,15.9287745 L11.628664,15.9287745 L11.5769009,15.9063462 C11.5561086,15.8966234 11.5357061,15.8862061 11.5159379,15.8753288 L11.5159379,15.8753288 L11.4793398,15.8539326 C11.453725,15.8382813 11.4288693,15.8215099 11.4046934,15.8036654 L11.4046934,15.8036654 L11.38,15.784 L11.3832499,15.787214 L11.378,15.783 L11.374551,15.7803112 L11.359,15.767 L11.347434,15.757792 L11.347434,15.757792 L11.2928932,15.7071068 L8.29289322,12.7071068 L8.20970461,12.6128994 C7.90467972,12.2206082 7.93240926,11.6533772 8.29289322,11.2928932 C8.68341751,10.9023689 9.31658249,10.9023689 9.70710678,11.2928932 L9.70710678,11.2928932 L11,12.585 L11,9 L11.0067277,8.88337887 C11.0644928,8.38604019 11.4871642,8 12,8 Z"/>
</svg>

<svg xmlns="http://www.w3.org/2000/svg" viewBox="0 0 24 24">
  <path d="M20 4a3 3 0 0 1 3 3v3a1 1 0 0 1-1 1h-1a1 1 0 0 0-1 .89V12c0 .52.4.96.89 1H22a1 1 0 0 1 1 1v3a3 3 0 0 1-3 3H4a3 3 0 0 1-3-3v-3a1 1 0 0 1 1-1h1a1 1 0 0 0 1-.89V12a1 1 0 0 0-.89-1H2a1 1 0 0 1-1-1V7a3 3 0 0 1 3-3zm0 2H4a1 1 0 0 0-1 1v2h.22A3 3 0 0 1 6 12.05v.18A3 3 0 0 1 3 15v2a1 1 0 0 0 .88 1H20a1 1 0 0 0 1-1v-2h-.22A3 3 0 0 1 18 11.95v-.18A3 3 0 0 1 21 9V7a1 1 0 0 0-1-1zm-8 2a1 1 0 0 1 1 1v3.59l1.3-1.3.09-.08a1 1 0 0 1 1.32 1.5l-3 3-.08.07a3 3 0 0 1-.15.1l-.06.03-.05.02a.95.95 0 0 1-.22.06h-.13L12 16h-.09l-.06-.01a1.1 1.1 0 0 1-.22-.06l-.05-.02a1.04 1.04 0 0 1-.06-.03l-.04-.03a1.03 1.03 0 0 1-.08-.05l-.02-.02-.02-.01-.01-.01-.06-.05-3-3-.08-.1a1 1 0 0 1 1.5-1.32L11 12.6V8.88A1 1 0 0 1 12 8z"/>
</svg>
